public/images/wechat.svg

import SpriteSymbol from "svg-baker-runtime/browser-symbol";
import sprite from "svg-sprite-loader/runtime/browser-sprite.build";
var symbol = new SpriteSymbol({
  "id": "icon-wechat",
  "use": "icon-wechat-usage",
  "viewBox": "0 0 1024 1024",
  "content": "<symbol class=\"icon\" viewBox=\"0 0 1024 1024\" id=\"icon-wechat\"><defs><style type=\"text/css\"></style></defs><path d=\"M669.029188 317.395814c10.181291 0 20.235686 0.748037 30.23789 1.865487C672.100256 192.728466 536.831031 98.730629 382.414962 98.730629c-172.618362 0-314.03484 117.659747-314.03484 267.066545 0 86.2422 47.044337 157.061129 125.674313 211.988112l-31.406554 94.467535 109.75511-55.05285c39.302708 7.78122 70.80955 15.765055 110.010947 15.765055 9.849726 0 19.624747-0.481977 29.323017-1.243317-6.144182-20.996197-9.69827-42.982954-9.69827-65.792449C402.040732 428.732551 519.845498 317.395814 669.029188 317.395814zM500.167537 232.256738c23.639342 0 39.302708 15.550161 39.302708 39.185464 0 23.536043-15.66439 39.300075-39.302708 39.300075-23.535984 0-47.146672-15.765055-47.146672-39.300075C453.021889 247.806899 476.632577 232.256738 500.167537 232.256738zM280.402504 310.7433c-23.537007 0-47.300174-15.765055-47.300174-39.300075 0-23.635303 23.76419-39.185464 47.300174-39.185464 23.53496 0 39.200373 15.550161 39.200373 39.185464C319.602877 294.978245 303.937464 310.7433 280.402504 310.7433z\" p-id=\"9338\" /><path d=\"M955.617831 562.14712c0-125.543298-125.622123-227.882104-266.733643-227.882104-149.41292 0-267.090791 102.338806-267.090791 227.882104 0 125.770472 117.677871 227.879034 267.090791 227.879034 31.278636 0 62.837668-7.896854 94.243199-15.765055l86.119862 47.170323-23.612735-78.473259C908.675829 695.672206 955.617831 632.965026 955.617831 562.14712zM602.306891 522.858302c-15.638806 0-31.431114-15.549138-31.431114-31.416524 0-15.651468 15.792308-31.405267 31.431114-31.405267 23.73963 0 39.302708 15.754822 39.302708 31.405267C641.609599 507.309164 626.04652 522.858302 602.306891 522.858302zM775.027587 522.858302c-15.538518 0-31.201884-15.549138-31.201884-31.416524 0-15.651468 15.66439-31.405267 31.201884-31.405267 23.535984 0 39.300661 15.754822 39.300661 31.405267C814.329272 507.309164 798.563571 522.858302 775.027587 522.858302z\" p-id=\"9339\" /></symbol>"
});
var result = sprite.add(symbol);
export default symbol

<svg class="icon" viewBox="0 0 1024 1024" xmlns="http://www.w3.org/2000/svg" width="64" height="64"><defs><style/></defs><path d="M669.03 317.396c10.18 0 20.235.748 30.237 1.865C672.1 192.728 536.831 98.731 382.415 98.731 209.797 98.73 68.38 216.39 68.38 365.797c0 86.242 47.044 157.061 125.674 211.988l-31.406 94.468L272.403 617.2c39.303 7.781 70.81 15.765 110.01 15.765 9.85 0 19.626-.482 29.324-1.243-6.144-20.996-9.698-42.983-9.698-65.793.002-137.196 117.806-248.533 266.99-248.533zm-168.862-85.14c23.639 0 39.302 15.55 39.302 39.186 0 23.536-15.664 39.3-39.302 39.3-23.536 0-47.147-15.765-47.147-39.3 0-23.635 23.612-39.185 47.147-39.185zm-219.765 78.487c-23.538 0-47.3-15.765-47.3-39.3 0-23.635 23.764-39.185 47.3-39.185 23.534 0 39.2 15.55 39.2 39.185 0 23.535-15.666 39.3-39.2 39.3z"/><path d="M955.618 562.147c0-125.543-125.622-227.882-266.734-227.882-149.413 0-267.09 102.339-267.09 227.882 0 125.77 117.677 227.88 267.09 227.88 31.279 0 62.838-7.898 94.243-15.766l86.12 47.17-23.612-78.473c63.04-47.286 109.983-109.993 109.983-180.81zm-353.311-39.289c-15.639 0-31.431-15.549-31.431-31.416 0-15.652 15.792-31.405 31.43-31.405 23.74 0 39.304 15.754 39.304 31.405 0 15.867-15.563 31.416-39.303 31.416zm172.72 0c-15.538 0-31.201-15.549-31.201-31.416 0-15.652 15.664-31.405 31.202-31.405 23.536 0 39.3 15.754 39.3 31.405.001 15.867-15.764 31.416-39.3 31.416z"/></svg>
